icons/svg/watch.svg

<svg width="24" height="24" viewBox="0 0 24 24" fill="none" xmlns="http://www.w3.org/2000/svg">
<path d="M18.3138 12C18.3138 9.89103 17.2798 8.02356 15.6911 6.87689V3.95706C15.6911 3.15235 15.0388 2.5 14.2341 2.5H9.76579C8.96108 2.5 8.30873 3.15235 8.30873 3.95705V6.87689C6.72004 8.02356 5.68604 9.89103 5.68604 12M18.3138 12C18.3138 14.109 17.2798 15.9764 15.6911 17.1231V20.0429C15.6911 20.8477 15.0388 21.5 14.2341 21.5H9.76579C8.96108 21.5 8.30873 20.8477 8.30873 20.0429V17.1231C6.72004 15.9764 5.68604 14.109 5.68604 12M18.3138 12C18.3138 15.4871 15.487 18.3139 11.9999 18.3139C8.51287 18.3139 5.68604 15.4871 5.68604 12M18.3138 12C18.3138 8.51293 15.487 5.68609 11.9999 5.68609C8.51287 5.68609 5.68604 8.51293 5.68604 12" stroke="currentColor" stroke-width="1.5" stroke-linecap="round" stroke-linejoin="round"/>
</svg>

<svg xmlns="http://www.w3.org/2000/svg" width="24" height="24" fill="none" viewBox="0 0 24 24"><path stroke="currentColor" stroke-linecap="round" stroke-linejoin="round" stroke-width="1.5" d="M18.314 12a6.3 6.3 0 0 0-2.623-5.123v-2.92c0-.805-.652-1.457-1.457-1.457H9.766c-.805 0-1.457.652-1.457 1.457v2.92A6.3 6.3 0 0 0 5.686 12m12.628 0a6.3 6.3 0 0 1-2.623 5.123v2.92c0 .805-.652 1.457-1.457 1.457H9.766a1.457 1.457 0 0 1-1.457-1.457v-2.92A6.3 6.3 0 0 1 5.686 12m12.628 0a6.314 6.314 0 1 1-12.628 0m12.628 0a6.314 6.314 0 1 0-12.628 0"/></svg>
